dist/img/lines.svg

<svg xmlns="http://www.w3.org/2000/svg" fill="none" viewBox="0 0 1678 910"><path fill="#fff" fill-rule="evenodd" d="M939.366 622.35c91.124 157.837 292.954 211.916 450.784 120.789 157.84-91.127 211.92-292.952 120.79-450.789-91.12-157.836-292.95-211.915-450.79-120.788-157.832 91.127-211.911 292.952-120.784 450.788zm-.866.5c91.4 158.315 293.84 212.558 452.15 121.155 158.32-91.403 212.56-293.84 121.16-452.155-91.4-158.314-293.84-212.557-452.16-121.154-158.31 91.403-212.553 293.84-121.15 452.154z" clip-rule="evenodd"/><path fill="#fff" d="M1102.96 160.704c-4.54 2.624-10.35 1.067-12.98-3.477-2.62-4.544-1.06-10.354 3.48-12.977 4.54-2.623 10.35-1.067 12.98 3.477 2.62 4.544 1.06 10.354-3.48 12.977z"/><path fill="#D9EAF2" d="M1102.46 159.838c-4.06 2.348-9.26.955-11.61-3.111-2.35-4.065-.95-9.264 3.11-11.611a8.499 8.499 0 0 1 11.61 3.111 8.493 8.493 0 0 1-3.11 11.611z"/><path fill="#D9EAF2" d="M1100.96 157.24a5.496 5.496 0 0 1-7.51-2.013 5.499 5.499 0 1 1 9.52-5.5 5.498 5.498 0 0 1-2.01 7.513z"/><path fill="#fff" fill-rule="evenodd" d="M1094.31 154.727c1.25 2.153 4 2.89 6.15 1.647a4.505 4.505 0 0 0 1.65-6.147 4.506 4.506 0 0 0-6.15-1.647 4.505 4.505 0 0 0-1.65 6.147zm-.86.5a5.498 5.498 0 0 0 9.52-5.5 5.497 5.497 0 1 0-9.52 5.5z" clip-rule="evenodd"/><path fill="#fff" d="M1229.35 131.613a5.508 5.508 0 0 1-7.52-2.013 5.51 5.51 0 0 1 2.02-7.513 5.497 5.497 0 0 1 7.51 2.013 5.498 5.498 0 0 1-2.01 7.513z"/><path fill="#D9EAF2" d="M1228.77 130.611a4.34 4.34 0 0 1-5.93-1.59 4.343 4.343 0 1 1 5.93 1.59z"/><path fill="#fff" fill-rule="evenodd" d="M.236 102.329a.5.5 0 0 1 .689.16c117.449 188.669 292.752 358.303 559.078 458.179 266.334 99.879 623.737 130.01 1105.407 39.594.27-.051.53.127.58.399a.502.502 0 0 1-.4.583c-481.79 90.44-839.386 60.321-1105.938-39.639C293.093 461.641 117.626 291.848.076 103.017a.5.5 0 0 1 .16-.688z" clip-rule="evenodd"/></svg>

<svg width="1678" height="910" viewBox="0 0 1678 910" fill="none" xmlns="http://www.w3.org/2000/svg">
<path fill-rule="evenodd" clip-rule="evenodd" d="M939.366 622.35C1030.49 780.187 1232.32 834.266 1390.15 743.139C1547.99 652.012 1602.07 450.187 1510.94 292.35C1419.82 134.514 1217.99 80.4351 1060.15 171.562C902.318 262.689 848.239 464.514 939.366 622.35ZM938.5 622.85C1029.9 781.165 1232.34 835.408 1390.65 744.005C1548.97 652.602 1603.21 450.165 1511.81 291.85C1420.41 133.536 1217.97 79.2929 1059.65 170.696C901.34 262.099 847.097 464.536 938.5 622.85Z" fill="white"/>
<path d="M1102.96 160.704C1098.42 163.328 1092.61 161.771 1089.98 157.227C1087.36 152.683 1088.92 146.873 1093.46 144.25C1098 141.627 1103.81 143.183 1106.44 147.727C1109.06 152.271 1107.5 158.081 1102.96 160.704Z" fill="white"/>
<path d="M1102.46 159.838C1098.4 162.186 1093.2 160.793 1090.85 156.727C1088.5 152.662 1089.9 147.463 1093.96 145.116C1098.03 142.769 1103.22 144.162 1105.57 148.227C1107.92 152.293 1106.53 157.491 1102.46 159.838Z" fill="#D9EAF2"/>
<path d="M1100.96 157.24C1098.33 158.759 1094.97 157.858 1093.45 155.227C1091.93 152.597 1092.83 149.233 1095.46 147.714C1098.09 146.195 1101.45 147.097 1102.97 149.727C1104.49 152.358 1103.59 155.722 1100.96 157.24Z" fill="#D9EAF2"/>
<path fill-rule="evenodd" clip-rule="evenodd" d="M1094.31 154.727C1095.56 156.88 1098.31 157.617 1100.46 156.374C1102.61 155.132 1103.35 152.38 1102.11 150.227C1100.86 148.075 1098.11 147.337 1095.96 148.58C1093.81 149.823 1093.07 152.575 1094.31 154.727ZM1093.45 155.227C1094.97 157.858 1098.33 158.759 1100.96 157.24C1103.59 155.722 1104.49 152.358 1102.97 149.727C1101.45 147.097 1098.09 146.195 1095.46 147.714C1092.83 149.233 1091.93 152.597 1093.45 155.227Z" fill="white"/>
<path d="M1229.35 131.613C1226.72 133.132 1223.35 132.231 1221.83 129.6C1220.32 126.97 1221.22 123.606 1223.85 122.087C1226.48 120.568 1229.84 121.47 1231.36 124.1C1232.88 126.731 1231.98 130.095 1229.35 131.613Z" fill="white"/>
<path d="M1228.77 130.611C1226.69 131.81 1224.04 131.098 1222.84 129.021C1221.64 126.945 1222.35 124.289 1224.43 123.09C1226.5 121.891 1229.16 122.603 1230.36 124.679C1231.56 126.756 1230.85 129.412 1228.77 130.611Z" fill="#D9EAF2"/>
<path fill-rule="evenodd" clip-rule="evenodd" d="M0.235827 102.329C0.470256 102.183 0.778604 102.254 0.92454 102.489C118.374 291.158 293.677 460.792 560.003 560.668C826.337 660.547 1183.74 690.678 1665.41 600.262C1665.68 600.211 1665.94 600.389 1665.99 600.661C1666.04 600.932 1665.86 601.193 1665.59 601.244C1183.8 691.684 826.204 661.565 559.652 561.605C293.093 461.641 117.626 291.848 0.0755955 103.017C-0.0703408 102.783 0.00139722 102.474 0.235827 102.329Z" fill="white"/>
</svg>
